X:1
T:Etude Op.365 No.3
T:Etude Op.365 No.3
T:Carl Czerny
C:Carl Czerny
%%score { 1 | 2 }
L:1/8
Q:1/2=96
M:4/4
K:C
V:1 treble nm="Piano" snm="Pno."
V:2 treble 
V:1
|:"^Molto allegro"!p! !5!e'/!3!c'/!1!g/!5!e'/ !4!d'/!2!a/!1!f/!5!d'/ !4!c'/g/e/!5!c'/ b/f/d/b/ | %1
 a/e/c/a/ g/d/B/g/ f/c/A/f/ e/B/G/e/ | d/A/F/!4!d/ !5!e/!2!B/!1!G/!4!e/ !5!f/c/A/!4!f/ g/d/B/g/ | %3
!<(! a/e/c/a/ b/f/d/b/ c'/g/e/c'/ d'/!2!b/!1!f/!<)!!f!!4!d'/ :: %4
!p! !5!e'/!1!g/!3!c'/!5!e'/ !4!d'/!1!f/!2!a/!5!d'/ !4!c'/!1!e/!2!g/!5!c'/ !4!b/!1!d/!2!f/!5!b/ | %5
 a/c/e/a/ g/B/d/g/ f/A/c/f/ e/G/B/e/ | d/F/A/!4!d/ !5!e/!2!G/!1!B/!4!e/ f/A/c/f/ g/B/d/g/ | %7
!<(! a/c/e/a/ b/d/f/b/ c'/e/g/c'/ d'/f/b/!<)!!f!!4!d'/ :: %8
!p! !1!g/!3!c'/!5!e'/!2!g/ !1!f/!4!b/!5!d'/!2!f/ e/!3!g/c'/!2!e/ d/!3!f/b/!2!d/ | %9
 c/e/a/c/ B/d/g/B/ A/c/f/A/ G/B/e/!2!G/ | %10
 !1!F/!3!A/!5!d/!1!F/ !2!G/!3!B/e/!1!G/ A/c/f/A/ B/d/g/B/ | %11
!<(! c/e/a/c/ d/f/b/d/ e/g/c'/e/ !2!f/!4!b/!5!d'/!<)!!f!!1!f/ :: %12
!p! !2!g/!5!e'/!4!c'/!2!g/ !1!f/d'/b/!2!f/ !1!e/!5!c'/!3!g/!2!e/ d/b/f/d/ | %13
 c/a/e/c/ B/g/d/B/ A/f/c/A/ G/e/B/G/ | %14
 F/d/!3!A/!1!F/ !2!G/!5!e/!3!B/!1!G/ !2!A/f/c/!1!A/ B/g/d/B/ | %15
!<(! c/a/e/c/ d/b/f/d/ e/c'/g/e/ f/d'/!4!b/!<)!!f!!1!f/ :: %16
!p! !2!g/!5!f'/!4!e'/!2!g/ !1!f/!5!e'/!4!d'/!2!f/ !1!e/d'/c'/!2!e/ d/c'/b/d/ | %17
 c/b/a/c/ B/a/g/B/ A/g/f/A/ G/f/e/G/ | %18
 F/e/d/!1!F/ !2!G/!5!f/!4!e/!1!G/ !2!A/!5!g/!4!f/!1!A/ B/a/g/B/ | %19
!<(! c/b/a/c/ d/c'/b/d/ e/d'/c'/e/ f/e'/d'/!<)!!f!!1!f/ :: %20
!mp! !2!g/!4!e'/!5!f'/!4!e'/ d'/!1!f/!3!g/!2!f/ !1!e/!4!c'/!5!d'/c'/ b/!1!d/!3!e/!2!d/ | %21
 c/a/b/a/ g/B/c/B/ A/f/g/f/ e/G/A/G/ | %22
 !1!F/!4!d/^c/d/ e/!1!G/!2!^F/!3!G/ !1!A/!4!=f/e/f/ g/!1!B/!2!^A/!3!B/ | %23
!<(! !1!=c/!4!=a/^g/a/ b/d/^c/!3!d/ !1!e/=c'/b/c'/ d'/f/!2!e/!<)!!f!!1!f/ :: %24
[K:Ab]!mf! !2!e/!5!c'/!4!a/!2!e/ !1!d/!5!b/!4!g/!2!d/ !1!c/!5!a/!4!e/!2!c/ !1!B/!5!g/!4!d/!2!B/ | %25
 !5!f/!1!A/!2!c/!5!f/ !4!e/!1!G/!2!B/!5!e/ d/F/A/d/ c/E/G/c/ | %26
 !1!D/!2!F/!5!B/!1!D/ !2!E/!3!G/!5!c/!1!E/ F/A/d/!1!F/ G/B/e/!1!G/ | %27
!<(! !2!A/!5!f/!3!c/!1!A/ !2!B/!5!g/!3!d/!1!B/ !2!c/a/e/!1!c/ !2!d/!5!b/!4!g/!<)!!f!!2!!1!d/ :: %28
!mp! !1!c/!<(!e/!3!a/c'/ !4!b/!2!g/b/a/ g/!1!=e/!4!g/f/ _e/c/!4!e/d/!<)! | %29
!f! c/!>(!!1!=A/!4!c/B/ _A/!1!F/!4!A/G/ F/!1!=D/!3!F/!2!E/ !1!G/B/!4!e/_d/!>)! :: %30
!mp! !1!c/!2!e/!4!g/!5!a/ !1!B/!2!d/!4!^f/!5!g/ A/c/=e/=f/ G/B/=d/_e/ | %31
 F/A/c/_d/ E/G/=B/c/ D/F/=A/_B/ C/E/G/_A/ | %32
 B,/D/^F/G/ !2!E/!1!C/!5!B/!4!A/ !1!D/!2!=F/!4!=A/!5!B/ !2!G/!1!E/d/c/ | %33
!<(! F/_A/c/d/ B/G/f/e/ !1!A/!2!c/=e/f/ !2!d/!1!B/a/!<)!!f!g/ :: %34
[K:E]!mf! !5!g/!4!e/!1!^A/!2!B/ !5!f/!4!d/!1!G/!2!=A/ !5!e/!3!B/!1!^^F/!2!G/ d/A/^E/^F/ | %35
!<(! c/G/D/=E/ B/F/^^C/D/ d/B/^E/F/ !5!g/!4!d/!2!^A/!<)!!f!!1!B/ :: %36
!f! !4!g/!2!=e/!5!a/!1!c/ !4!f/!2!d/!5!g/!1!B/ e/c/f/A/ d/B/e/G/ | %37
 !2!A/!4!c/!1!F/!5!d/ !2!G/!4!B/!1!E/!5!c/ F/A/D/B/ E/G/C/A/ | %38
 !2!D/!3!F/!1!D/!5!B/ !2!E/!4!G/!1!E/!5!c/ !2!F/!3!A/!1!F/!5!d/ !2!G/!3!B/!1!G/!5!e/ | %39
!<(! !4!c/!2!A/!5!f/!1!A/ !4!d/!2!B/!5!g/!1!B/ !4!e/!2!c/a/!1!c/ !4!f/!2!d/b/!<)!!ff!!1!d/ :| %40
!ff!"^Coda" !wedge!!2!!4![eg]2 !wedge!!3![Aea]2 !wedge!!2![cef]2 !wedge![Adfb]2 | %41
 .!2!!3!!5![GBe]2 z2 z4 |] %42
V:2
|: !1!e/!2!c/!5!G/!1!e/ !2!d/!4!A/!5!F/!1!d/ !2!c/G/E/!1!c/ B/F/D/B/ | %1
 A/E/C/A/ G/D/B,/G/[K:bass] F/C/A,/F/ E/B,/G,/E/ | %2
 D/A,/F,/!2!D/ !1!E/!4!B,/!5!G,/!2!E/ !1!F/C/A,/!2!F/[K:treble] G/D/B,/G/ | %3
 A/E/C/A/ B/F/D/B/ c/G/E/c/ d/!3!B/!5!F/!2!d/ :: %4
 !1!e/!5!G/!3!c/!1!e/ !2!d/!5!F/!4!A/!1!d/ !2!c/!5!E/!4!G/!1!c/ !2!B/!5!D/!4!F/!1!B/ | %5
 A/C/E/A/ G/B,/D/G/[K:bass] F/A,/C/F/ E/G,/B,/E/ | %6
 D/F,/A,/!2!D/ !1!E/!5!G,/!4!B,/!2!E/ F/A,/C/F/[K:treble] G/B,/D/G/ | %7
 A/C/E/A/ B/D/F/B/ c/E/G/c/ d/F/!3!B/!2!d/ :: %8
 !5!G/!2!c/!1!e/!4!G/ !5!F/!2!B/!1!d/!4!F/ E/!2!G/c/!4!E/ D/F/B/D/ | %9
 C/E/A/C/ B,/D/G/B,/[K:bass] A,/C/F/A,/ G,/B,/E/!4!G,/ | %10
 !5!F,/!3!A,/!1!D/!5!F,/ !4!G,/!2!B,/E/!5!G,/[K:treble] A,/C/F/A,/ B,/D/G/B,/ | %11
 C/E/A/C/ D/F/B/D/ E/G/c/E/ !4!F/!2!B/!1!d/!5!F/ :: %12
 !4!G/!1!e/!2!c/!4!G/ !5!F/d/B/!4!F/ E/c/!2!G/!4!E/ D/B/F/D/ | %13
 C/A/E/C/ B,/G/D/B,/[K:bass] A,/F/C/A,/ G,/E/B,/G,/ | %14
 F,/D/!3!A,/!5!F,/ !4!G,/!1!E/!2!B,/!5!G,/[K:treble] !4!A,/F/C/!5!A,/ B,/G/D/B,/ | %15
 C/A/E/C/ D/B/F/D/ E/c/G/E/ F/d/!2!B/!5!F/ :: %16
 !4!G/!1!f/!2!e/!4!G/ !5!F/!1!e/!2!d/!3!F/ !5!E/d/c/!4!E/ D/c/B/D/ | %17
 C/B/A/C/ B,/A/G/B,/ A,/G/F/A,/[K:bass] G,/F/E/G,/ | %18
 F,/E/D/!5!F,/ !4!G,/!1!F/!2!E/!5!G,/[K:treble] !4!A,/!1!G/!2!F/!5!A,/ B,/A/G/B,/ | %19
 C/B/A/C/ D/c/B/D/ E/d/c/E/ F/e/d/!5!F/ :: %20
 !3!!4!G/!1!!2!e/!2!!1!f/!3!!2!e/ !1!d/!4!F/!3!G/!4!F/ !5!E/!2!c/!1!d/!2!c/ !1!B/!4!D/E/D/ | %21
 C/A/B/A/ G/B,/C/B,/ A,/F/G/F/[K:bass] E/G,/A,/G,/ | %22
 F,/!1!D/!3!^C/!2!D/ !1!E/!4!G,/!5!^F,/!4!G,/ !3!A,/!1!=F/!3!E/F/[K:treble] G/!4!B,/^A,/B,/ | %23
 !3!=C/=A/!3!^G/A/ B/!4!D/^C/D/ E/=c/!3!B/c/ d/F/E/!4!F/ :: %24
[K:Ab] !4!!5!E/!1!c/!2!A/!4!E/ !5!D/!1!B/!2!G/!4!D/ !5!C/!1!A/!2!E/!4!C/ B,/G/D/B,/ | %25
[K:bass] !1!F/!5!A,/!3!C/!1!F/ !2!E/!5!G,/!4!B,/!1!E/ !2!D/F,/A,/D/ C/E,/G,/C/ | %26
 !5!D,/!3!F,/!1!B,/!5!D,/ !4!E,/!2!G,/!1!C/!5!E,/ F,/A,/D/!5!F,/ G,/B,/E/!5!G,/ | %27
 !4!A,/!1!F/!3!C/!5!A,/[K:treble] !4!B,/!1!G/!3!D/!5!B,/ !4!C/A/E/!5!C/ !4!D/!1!B/!2!G/!4!!5!D/ :: %28
 !5!C/E/A/c/ !2!B/!4!G/B/A/ !1!G/!4!=E/!1!G/F/ _E/C/!2!E/!3!D/ | %29
[K:bass] !1!C/!3!=A,/C/B,/ _A,/!5!F,/!2!A,/!1!G,/ F,/=D,/F,/E,/[K:treble] !1!G,/!4!B,/!2!E/_D/ :: %30
 !5!C/!4!E/!2!G/!1!A/ !5!B,/!4!D/!2!^F/!1!G/[K:bass] A,/C/=E/=F/ G,/B,/=D/_E/ | %31
 F,/A,/C/_D/ E,/G,/=B,/C/ D,/F,/=A,/_B,/ C,/E,/G,/_A,/ | %32
 B,,/D,/^F,/G,/ !3!E,/!5!C,/!1!B,/!2!A,/ !5!D,/!4!=F,/!2!=A,/!1!B,/ !3!G,/E,/D/C/ | %33
 F,/A,/C/D/ B,/G,/F/E/ A,/!4!C/=E/F/[K:treble] !4!D/B,/!1!A/!2!G/ :: %34
[K:E] !1!G/!2!E/!5!^A,/!4!B,/ !1!F/!2!D/!5!G,/!4!=A,/[K:bass] !1!E/!2!B,/!5!^^F,/!4!G,/ D/A,/^E,/^F,/ | %35
 C/G,/D,/=E,/ B,/F,/^^C,/D,/ D/B,/^E,/F,/[K:treble] !1!G/!2!D/!5!^A,/!4!B,/ :: %36
 !2!!1!G/!4!!3!E/!1!A/!5!C/ !2!F/!4!D/!1!G/!5!B,/[K:bass] E/C/F/A,/ D/B,/E/G,/ | %37
 !4!A,/!2!C/!5!F,/!1!D/ !4!G,/!2!B,/!5!E,/!1!C/ F,/A,/D,/B,/ E,/G,/C,/A,/ | %38
 !4!D,/!2!F,/!5!D,/!1!B,/ !4!E,/!2!G,/!5!E,/!1!C/ !4!F,/!2!A,/!5!F,/!1!D/ !4!G,/!2!B,/!5!G,/!1!E/ | %39
 !2!C/!4!A,/!1!F/!5!A,/[K:treble] !2!D/!4!B,/!1!G/!5!B,/ !2!E/!4!C/A/!5!C/ F/D/B/!5!D/ :| %40
 !wedge!!4!!2![EG]2[K:bass] !wedge![C,C]2 !wedge![A,,A,]2 !wedge![B,,B,]2 | .[E,,E,]2 z2 z4 |] %42

